img/icons/keys.svg

<svg width="25" height="25" viewBox="0 0 25 25" fill="none" xmlns="http://www.w3.org/2000/svg">
<path fill-rule="evenodd" clip-rule="evenodd" d="M24.892 8.43713C24.892 12.6325 21.4763 16.0337 17.2641 16.0337C16.4964 16.0337 14.7464 15.8575 13.8955 15.1502L12.8309 16.2099C12.2045 16.8339 12.3735 17.0173 12.6523 17.3191C12.7682 17.4458 12.9033 17.5919 13.0084 17.8007C13.0084 17.8007 13.8955 19.0366 13.0084 20.2737C12.4761 20.9798 10.9855 21.9683 9.2837 20.2737L8.92886 20.6261C8.92886 20.6261 9.99218 21.8632 9.10628 23.1004C8.57401 23.8064 7.15464 24.5125 5.91269 23.2766L4.67195 24.5125C3.81984 25.361 2.77945 24.8661 2.36667 24.5125L1.30093 23.4528C0.307614 22.4631 0.88695 21.3913 1.30093 20.9786L10.5244 11.7937C10.5244 11.7937 9.63734 10.3815 9.63734 8.43834C9.63734 4.24298 13.053 0.841797 17.2653 0.841797C21.4775 0.841797 24.892 4.24298 24.892 8.43713ZM17.2653 11.0876C17.9693 11.0889 18.645 10.8105 19.1438 10.3137C19.6427 9.81692 19.9238 9.14236 19.9254 8.43834C19.9247 8.08964 19.8554 7.74448 19.7214 7.42257C19.5874 7.10066 19.3913 6.8083 19.1443 6.56218C18.8972 6.31606 18.6042 6.12101 18.2818 5.98815C17.9594 5.8553 17.614 5.78724 17.2653 5.78788C16.9166 5.78724 16.5712 5.8553 16.2488 5.98815C15.9264 6.12101 15.6333 6.31606 15.3863 6.56218C15.1393 6.8083 14.9431 7.10066 14.8091 7.42257C14.6751 7.74448 14.6058 8.08964 14.6051 8.43834C14.6067 9.14236 14.8879 9.81692 15.3867 10.3137C15.8855 10.8105 16.5612 11.0889 17.2653 11.0876Z" fill="#89929C"/>
</svg>

<svg width="25" height="25" fill="none" xmlns="http://www.w3.org/2000/svg"><path fill-rule="evenodd" clip-rule="evenodd" d="M24.892 8.437c0 4.196-3.416 7.597-7.628 7.597-.768 0-2.518-.176-3.368-.884l-1.065 1.06c-.627.624-.457.807-.179 1.11.116.126.251.272.356.48 0 0 .888 1.237 0 2.474-.532.706-2.022 1.694-3.724 0l-.355.352s1.063 1.237.177 2.474c-.532.706-1.951 1.412-3.193.177l-1.241 1.235c-.852.849-1.893.354-2.305 0L1.3 23.453c-.993-.989-.414-2.06 0-2.473l9.223-9.185s-.887-1.412-.887-3.356c0-4.195 3.416-7.596 7.628-7.596s7.627 3.401 7.627 7.595zm-7.627 2.65a2.655 2.655 0 002.66-2.649 2.657 2.657 0 00-3.676-2.45 2.655 2.655 0 00-1.644 2.45 2.655 2.655 0 002.66 2.65z" fill="#89929C"/></svg>
